X: 1603
%S: s:2 b:14(7+7)
T: the Harvest Home   #2
R: hornpipe
B: O'Neill's 1850 #1603
Z: Transcribed by Michael D. Long, 10/02/98
Z: Transcribed by Michael Hogan
M: C|
L: 1/8
K: D
(AF) |: DAFA DAFA | defe dcBA |\
[1,3 eAfA gAfA | edcB AGFE :|\
[2,4 dAFA fgec | d2d2 d2 :: (cd) |\
e>A (3AAA f>A (3AAA |
| e>A (3AAA f>A (3AAA |\
eAfA gAfA | (3(efe) (3(dcB) (3(ABA) (3(GFE) ||\
DAFA DAFA | defe dcBA | dAFA fgec | d2d2 d2 :|
